X:1
T:Gloria in excelsis Deo
%%score [ 1 2 3 4 ]
L:1/8
Q:1/4=60
M:4/4
K:C
V:1 treble nm="Soprano" snm="S"
V:2 treble nm="Alto" snm="A"
V:3 treble-8 nm="Tenor" snm="T"
V:4 bass nm="Bass" snm="B"
V:1
"^Slow" A>G | A4 c2 d2 | F4 A>G F>E | D2 E2 F2 E2 | D8 |[K:G] e>B GF edcB | B2 A/G/A/c/ B4 | %7
w: Glo- ri-|a Glo- ri-|a in ex- ce- e-|e- el sis De-|o|et in ter- ra- a pa- a- ax|ho- mi- i- ni- i- bus|
 A4 G2 E2 | E4 c2 E2- | E2 z2 z4 | z4 B2 B2 | BGcG B3 E | B2 B/c/d/c/ B4 | e>B GF edcB | %14
w: bo- nae vo-|lun- ta- tis|_|Lau- da-|mu- us te- e Be- ne-|di- ci- i- mu- us te|et in ter- ra- pa- a- a- ax|
 B2 A/G/A/c/ B4 | A4 G2 E2 | E4 c2 E2- | E2 z2 ABcE |[K:C] ABcE D3/2FA3/2 | A4 E4 ||[K:E] B8 | %21
w: ho- mi- i- ni- i- bus|bo- nae- vo-|lun- ta- tis|_ A- a- do- or-|a- mus te- e Be- ne- di-|ci- mus-|te|
[M:3/4] z6 | z4 B2 | B2 c4 | c3/2 B2- B/ G2 | E>F GF EE/D/ | G2 E2 GF | E2 E2 E2 |[M:2/4] BA cF | %29
w: |us,|tu so-|lu si * mus.|Ie- su Chris- te, cum Sanc- to|Spi- ri- tu in|Glo- ri- a|De- i Pat- ris.|
[M:4/4] BE F2 B2 G2 | z6 F2 | F4 B>D G2 | B4 B>G B>G | B2 d2 e2 d2- |[M:3/4] d6 |] %35
w: A- a- a- me- en.|Et|in ter- ra pax|Bo- o- o- o- nae|vo- lun- ta- tis.||
V:2
 z2 | z8 | z8 | z8 | z4 D4 |[K:G] z2 EF AFcB | B2 A4 B2 | C>B, D2 C2 B,2 | D4 G>F E2- | E2 z2 z4 | %10
w: ||||o|et in ter- ra pa- ax|ho- mi- ni-|bu- us bo- nae vo-|lun- ta- a- tis|_|
 z4 EEEE | G2 A2 E4 | BGBF B2 E2 | B2 E2 DBcB | B2 A4 B2 | C>B, D2 C2 B,2 | D4 G>F E2- | %17
w: Lau- da- mus te|Be- ne- di-|ci- i- mu- us te- e|et in ter- ra pa- ax|ho- mi- ni-|bu- us bo- nae vo-|lun- ta- a- tis|
 E2 z2 =FFFE |[K:C] E/F/ D3- D C3 | D2 F2 B,4 ||[K:E] G8 |[M:3/4] z6 | z4 G2 | FE G4 | G4 E2 | %25
w: _ A- dor- ra- mus-|te- e Ben _ ne-|di- ci- mus|te||us,|tu so- lus|nus mus.|
 EF GF EC | B,2 C/C/C/E/ C2 | EC E2 E2 |[M:2/4] F/G/A/B/ c/B/A/F/ |[M:4/4] EC D2 E4 | z6 B,>E | %31
w: Ie- su Chris- te, cum Sanc-|to Spi- i- ri- tu in|Glo- o- ri- a|De- e- e- i Pa- a- at ris.|A- a- a- men.|Et in|
 D4 F2 E2- | E4 D>B, B,>G | B2 D2 E2 D2- |[M:3/4] D6 |] %35
w: ter- ra pax|_ Bo- o- na- ae|vo- lun- ta- tis|_|
V:3
 z2 | z8 | z8 | z8 | z4 G4 |[K:G] E>B e2 F2 G2 | ec f2 d2 G2 | cBAG E2 G2 | B8- | B2 z2 z4 | %10
w: ||||o|et in ter- ra pax|ho- mi- ni- bu- us|bo- nae vo- lu- un- ta-|tis|_|
 G2 F2- FD E2 | B4 BA B/A/c/F/ | Bc B2- B4 | E>B e2 F2 G2 | ec f2 d2 G2 | cBAG E2 G2 | B8- | %17
w: Lau- da _ mus te|Be- ne- e- di- i- i- ci-|mu- us te _|et in ter- ra pax|ho- o- mi- ni- bus|bo- nae vo- o- lun- ta-|tis|
 B2 z4 G/=F/E/D/ |[K:C] A2- A2 G/EA/- A2 | AGcE B2 D2 ||[K:E] G8 |[M:3/4] E>F (3A2 =G2 =F2 | %22
w: _ A- do- ra- mus|te _ Be- ne- di _|ci- i- i- i- mu- us|te|Quo- ni- am tu so-|
 B=c/B/ A2 G2 | EG (3B2 A2 F2 | G/F/C/E/- E2 E2 | B3 B e2 | B2 Gc Bc | B2 dB e2 |[M:2/4] dc BA | %29
w: lus Sa- anc- tu- us,|tu so- lus Do- mi-|nus Al- ti- si _ mus.|Ie- su Chris-|te Spi- ri- tu in|Glo- ri- i- a|De- i- Pat- ris.|
[M:4/4] B4 eB e2 | z6 d>c | B/d/ B2 f c2 B2- | B4 B/d/ B2 G | B/^A/F DG c B3- |[M:3/4] B6 |] %35
w: A- me- e- en.|Et in|ter- ra pax ho- mi- ni|_ bu- us Bo- nae|vo- o- lu- un- ta- a- tis|_|
V:4
 z2 | z8 | z8 | z8 | z4 A,4 |[K:G] E,2 B,2 D,4 | B,2 A,2 D,2 G,2 | G,2 F, A,2 C,3 | %8
w: ||||o|et in ter-|ra pax ho- mi-|ni- bus Bo- nae|
 D,4 D,2 E,/F,/B,- | B,2 z2 E,2 F,2 | G,F,D,F, E,D,E,B,,- | B,,2 E,B,, E,2 G,F, | %12
w: vo- lun- ta- a- tis|_ La- au-|da- a- a- a- mu- us te- e|* Be- e- e- e- ne-|
 B,,G,F,E, B,2 B,/A,/G,/F,/ | E,2 B,2 D,2 E,2 | B,2 A,2 D,2 G,2 | G,2 F, A,2 C,3 | %16
w: di- ci- mu- us te- e- e- e- e|et in ter- ra|pax ho- mi- ni-|bu- us bo- nae|
 D,4 D,2 E,/F,/B,- | B,2 z6 |[K:C] A,,2 C,2 G,,2 C,2 | D,E,F,A,, E,3/2D,G,,3/2 || %20
w: vo- lun- ta- a- tis|_|A- dor- a- mus|Be- ne- di- ci- mu- u- us|
[K:E] B,,/C,/ E,3- E,4 |[M:3/4] E,>F, (3E,2 =D,2 =C,2 | E,=D,/E,/ =F,2 E,2 | E,6- | E,4 B,2 | %25
w: te- e- e _|Quo- ni- am tu so-|lus Sa- anc- tu- us|us|_ mus.|
 E,4 B,2 | E,F, G,A, B,A, | B,E, F,2 B,2 |[M:2/4] B,F, B,D, |[M:4/4] E,4 E,4 | B,8 | %31
w: Ie- su|Chri- ste Spi- ri- tu in|Glo- ri- a- a|De- i Pat- ris.|A- men.|O!|
 F,2 B,2 C2 B,2 | E,F,E,E, F,B,, D,2 | B,,2 D,2 E,/C,/ B,,3- |[M:3/4] B,,6 |] %35
w: Et in ter ra|pax ho- mi- ni- bus Bo- nae|vo- lun- ta- a- tis.||

